images/mtn-dew-ice-logo.svg

<svg height="97.7" viewBox="0 0 121.82 97.7" width="121.82" xmlns="http://www.w3.org/2000/svg"><g fill="#231f20"><path d="m65.24 28.3a1.18 1.18 0 1 0 -1.24-1.18 1.14 1.14 0 0 0 1.24 1.18zm-.61-2h.62c.42 0 .67.12.67.49a.39.39 0 0 1 -.4.44l.42.72h-.41l-.38-.7h-.15v.75h-.36z"/><path d="m65.55 26.76c0-.17-.19-.19-.33-.19h-.22v.43h.3c.15 0 .25-.06.25-.24z"/><path d="m83.89 0-34.17 15.86a50.4 50.4 0 0 1 3.28-8.86l1.71-3-13.12 6 .83-2.61-11.78 5.92-.64 2.1-10 4.66-.15.22a36.22 36.22 0 0 0 -2.45 3.31c-3 4.21-8.69 12.06-13.9 18l-3.5 3.78 13.27-5.47c-1.57 3.85-4.85 11.7-6.77 14.79l-2.04 3.3 19.86-9.32a15.49 15.49 0 0 0 4.05-2.59l.33-.32a4.68 4.68 0 0 0 1.27 0l.34-.06a7.67 7.67 0 0 0 1.48-.51h.07l26.24-12.34.27-.13.18-.25c0-.07 1.72-2.43 4.24-5.88a2.66 2.66 0 0 0 0 .51 2.5 2.5 0 1 0 2.5-2.48 2.57 2.57 0 0 0 -1.29.37c4.63-6.37 11.32-15.25 16.29-20.9zm-18.65 25.59a1.53 1.53 0 0 1 0 3.07 1.53 1.53 0 1 1 0-3.07z"/></g><path d="m47.92 18c2.34-8.5 4.08-11.52 4.08-11.52l-12.29 5.64.79-2.49-8.92 4.49-.67 2.11-10.1 4.77s-8.46 12.64-16.46 21.35l11-4.53s-5.16 13.13-7.87 17.49l16.36-7.68a14.49 14.49 0 0 0 3.76-2.4 8.8 8.8 0 0 0 .71-.73h.07a3.49 3.49 0 0 0 1.44.09h.26a6.62 6.62 0 0 0 1.27-.45l26.26-12.32s13.32-18.82 21.82-28.48z" fill="#93c83d"/><path d="m57 30.6-26 12.16a3.23 3.23 0 0 1 -2.26.36 1.74 1.74 0 0 1 -.6-.34 7.41 7.41 0 0 1 -1.14 1.28 13.57 13.57 0 0 1 -3.5 2.22l-13.43 6.32c2.78-4.7 7.14-17.05 7.14-17.05l-8.89 3.71c3.47-3.65 13.31-17.86 13.31-17.86l10.27-4.81.68-2.13 6.31-3.18-.76 2.39 11.92-5.51a107.07 107.07 0 0 0 -3.55 11.25l29.39-13.65s-4.66 4.36-18.89 24.84z" fill="#fff"/><path d="m33.58 15.14 3.17-1.6-.75 2.28 2.5-1.17-.65 2.06-2.5 1.17-1.76 5.55c-.21.67-.2.82.36.56l1.1-.51a4.59 4.59 0 0 0 1.26-.93l-1 2.56-3.93 1.84c-1 .47-1.64.2-.81-2.42l1.64-5.17-1 .46.65-2.06 1-.46z" fill="#04703c"/><path d="m42.77 12.65-.25 1.05a3.31 3.31 0 0 1 1.16-1.47l2.56-1.23c1.47-.69 1.62.5.87 2.85l-1.36 4.27a5.53 5.53 0 0 0 -.42 2.26l-3.82 1.79a10.88 10.88 0 0 0 1.11-2.58l1.64-5.17c.21-.65.14-.81-.24-.63l-1.14.53c-.39.18-.59.47-.79 1.11l-1.64 5.17a5.49 5.49 0 0 0 -.45 2.3l-3.83 1.79a10.82 10.82 0 0 0 1.11-2.58l1.8-5.69a5.47 5.47 0 0 0 .42-2.25z" fill="#04703c"/><path d="m17 31.79c-.37.53-.85 1.29-1.05 1.67a3.51 3.51 0 0 0 -.37.9l-3 1.38a33.38 33.38 0 0 0 2.57-3.32l7-10.11 3.24-1.52-2.58 8 5-9.17 3.28-1.53-2.4 7.91a9 9 0 0 0 -.6 2.53l-3.69 1.72c.18-.33.32-.57.48-.93a11 11 0 0 0 .48-1.32l1.42-4.55-4.21 7.69-3.6 1.68 2.14-6.72z" fill="#04703c"/><path d="m18.25 37c.82-2 1-2.93.86-3.52l9.25-4.27c2.68-1.25 3 .05 1.56 4.42l-2.08 6.84c-.61 2-2.17 3.38-4.85 4.63l-9.81 4.59a27.71 27.71 0 0 0 1.64-3.88zm1.52 6.61 2.51-1.17c.79-.37 1-.73 1.5-2.17l1.78-5.27c.49-1.44.47-1.69-.32-1.32l-2.1.94z" fill="#ec1a36"/><path d="m34.44 34.57-.44 1.43c-.34 1.12-.19 1.45.56 1.1l4.44-2.1a7.1 7.1 0 0 0 2.32-1.65l-1.54 3.89-9.28 4.34c-2.09 1-2.22-.21-1.19-3.47l2-6.19c1-3.26 2.09-5 4.18-6l7.09-3.31c2.09-1 2.22.21 1.19 3.47l-1.52 4.79zm4.23-4.57.67-2.13c.28-.9.24-1.19-.27-1l-1.91.9c-.51.24-.79.68-1.07 1.58l-.67 2.13z" fill="#ec1a36"/><path d="m63.94 15.49c.56-.8 1.31-1.94 1.61-2.51a5.12 5.12 0 0 0 .56-1.34l4.63-2.16a50 50 0 0 0 -4 5l-10.41 15-5.8 2.71 3.84-11.94-8.17 14-4.88 2.28 3.74-11.72a13.48 13.48 0 0 0 .89-3.76l5.49-2.56c-.27.49-.47.84-.71 1.38a15.83 15.83 0 0 0 -.73 2l-2.11 6.76 6.84-11.7 6.44-3-3.17 9.99z" fill="#ec1a36"/><path d="m40.08 44.81-2.16 11.52 8.81-4.12-10.45 13.35-6.16 32.14 11.41-5.33 10-52.87zm17.46-8.11-10 52.85 31.76-14.7 3.59-19-9.89 4.73-1.34 7.11-10.47 4.86 5.57-29.64 10.45-4.91-1.7 9.21 9.85-4.62 3.89-20.7zm37.3-17.47-9.84 52.97 28.87-13.56 2.19-11.64-17.55 8.2 1.74-9.2 12.94-6 2.15-11.34-13 6.08 1.74-9.17 15.51-7.37 2.19-11.58z" fill="#0f0f11"/></svg>

<svg xmlns="http://www.w3.org/2000/svg" width="121.82" height="97.7" viewBox="0 0 121.82 97.7">
  <defs>
    <style>
      .cls-1 {
        fill: #231f20;
      }

      .cls-2 {
        fill: #93c83d;
      }

      .cls-3 {
        fill: #fff;
      }

      .cls-4 {
        fill: #04703c;
      }

      .cls-5 {
        fill: #ec1a36;
      }

      .cls-6 {
        fill: #0f0f11;
      }
    </style>
  </defs>
  <title>mtn-dew-ice-logo</title>
  <g id="Layer_2" data-name="Layer 2">
    <g id="Layer_2-2" data-name="Layer 2">
      <g>
        <g>
          <path class="cls-1" d="M65.24,28.3A1.18,1.18,0,1,0,64,27.12,1.14,1.14,0,0,0,65.24,28.3Zm-.61-2h.62c.42,0,.67.12.67.49a.39.39,0,0,1-.4.44l.42.72h-.41l-.38-.7H65V28h-.36Z"/>
          <path class="cls-1" d="M65.55,26.76c0-.17-.19-.19-.33-.19H65V27h.3C65.45,27,65.55,26.94,65.55,26.76Z"/>
          <path class="cls-1" d="M83.89,0,49.72,15.86A50.4,50.4,0,0,1,53,7L54.71,4,41.59,10l.83-2.61L30.64,13.31,30,15.41,20,20.07l-.15.22A36.22,36.22,0,0,0,17.4,23.6c-3,4.21-8.69,12.06-13.9,18L0,45.38l13.27-5.47c-1.57,3.85-4.85,11.7-6.77,14.79L4.46,58l19.86-9.32a15.49,15.49,0,0,0,4.05-2.59l.33-.32a4.68,4.68,0,0,0,1.27,0l.34-.06a7.67,7.67,0,0,0,1.48-.51l.07,0L58.1,32.86l.27-.13.18-.25c0-.07,1.72-2.43,4.24-5.88a2.66,2.66,0,0,0,0,.51,2.5,2.5,0,1,0,2.5-2.48A2.57,2.57,0,0,0,64,25C68.63,18.63,75.32,9.75,80.29,4.1ZM65.24,25.59a1.53,1.53,0,0,1,0,3.07,1.53,1.53,0,1,1,0-3.07Z"/>
        </g>
        <path class="cls-2" d="M47.92,18C50.26,9.5,52,6.48,52,6.48L39.71,12.12l.79-2.49-8.92,4.49-.67,2.11L20.81,21S12.35,33.64,4.35,42.35l11-4.53S10.19,50.95,7.48,55.31l16.36-7.68a14.49,14.49,0,0,0,3.76-2.4,8.8,8.8,0,0,0,.71-.73l.07,0a3.49,3.49,0,0,0,1.44.09l.26,0a6.62,6.62,0,0,0,1.27-.45h0L57.61,31.82S70.93,13,79.43,3.34Z"/>
        <path class="cls-3" d="M57,30.6,31,42.76a3.23,3.23,0,0,1-2.26.36h0a1.74,1.74,0,0,1-.6-.34A7.41,7.41,0,0,1,27,44.06a13.57,13.57,0,0,1-3.5,2.22L10.07,52.6c2.78-4.7,7.14-17.05,7.14-17.05L8.32,39.26C11.79,35.61,21.63,21.4,21.63,21.4L31.9,16.59l.68-2.13,6.31-3.18-.76,2.39L50.05,8.16A107.07,107.07,0,0,0,46.5,19.41L75.89,5.76S71.23,10.12,57,30.6Z"/>
        <g>
          <path class="cls-4" d="M33.58,15.14l3.17-1.6L36,15.82l2.5-1.17-.65,2.06-2.5,1.17-1.76,5.55c-.21.67-.2.82.36.56l1.1-.51a4.59,4.59,0,0,0,1.26-.93l-1,2.56-3.93,1.84c-1,.47-1.64.2-.81-2.42l1.64-5.17-1,.46.65-2.06,1-.46Z"/>
          <path class="cls-4" d="M42.77,12.65l-.25,1.05h0a3.31,3.31,0,0,1,1.16-1.47L46.24,11c1.47-.69,1.62.5.87,2.85l-1.36,4.27a5.53,5.53,0,0,0-.42,2.26l-3.82,1.79a10.88,10.88,0,0,0,1.11-2.58l1.64-5.17c.21-.65.14-.81-.24-.63l-1.14.53c-.39.18-.59.47-.79,1.11l-1.64,5.17A5.49,5.49,0,0,0,40,22.9l-3.83,1.79a10.82,10.82,0,0,0,1.11-2.58l1.8-5.69a5.47,5.47,0,0,0,.42-2.25Z"/>
          <path class="cls-4" d="M17,31.79c-.37.53-.85,1.29-1.05,1.67a3.51,3.51,0,0,0-.37.9l-3,1.38a33.38,33.38,0,0,0,2.57-3.32l7-10.11,3.24-1.52-2.58,8h0l5-9.17,3.28-1.53L28.69,26a9,9,0,0,0-.6,2.53l-3.69,1.72c.18-.33.32-.57.48-.93A11,11,0,0,0,25.36,28l1.42-4.55h0l-4.21,7.69-3.6,1.68,2.14-6.72h0Z"/>
        </g>
        <g>
          <path class="cls-5" d="M18.25,37c.82-2,1-2.93.86-3.52l9.25-4.27c2.68-1.25,3,.05,1.56,4.42l-2.08,6.84c-.61,2-2.17,3.38-4.85,4.63l-9.81,4.59a27.71,27.71,0,0,0,1.64-3.88Zm1.52,6.61,2.51-1.17c.79-.37,1-.73,1.5-2.17L25.56,35c.49-1.44.47-1.69-.32-1.32l-2.1.94Z"/>
          <path class="cls-5" d="M34.44,34.57,34,36c-.34,1.12-.19,1.45.56,1.1L39,35a7.1,7.1,0,0,0,2.32-1.65l-1.54,3.89-9.28,4.34c-2.09,1-2.22-.21-1.19-3.47l2-6.19c1-3.26,2.09-5,4.18-6l7.09-3.31c2.09-1,2.22.21,1.19,3.47l-1.52,4.79ZM38.67,30l.67-2.13c.28-.9.24-1.19-.27-1l-1.91.9c-.51.24-.79.68-1.07,1.58l-.67,2.13Z"/>
          <path class="cls-5" d="M63.94,15.49c.56-.8,1.31-1.94,1.61-2.51a5.12,5.12,0,0,0,.56-1.34l4.63-2.16a50,50,0,0,0-4,5l-10.41,15-5.8,2.71,3.84-11.94,0,0-8.17,14-4.88,2.28,3.74-11.72a13.48,13.48,0,0,0,.89-3.76l5.49-2.56c-.27.49-.47.84-.71,1.38a15.83,15.83,0,0,0-.73,2l-2.11,6.76,0,0,6.84-11.7,6.44-3L58,23.92l0,0Z"/>
        </g>
        <path class="cls-6" d="M40.08,44.81,37.92,56.33l8.81-4.12L36.28,65.56,30.12,97.7h0l11.41-5.33,10-52.87Zm17.46-8.11-10,52.85L79.3,74.85l3.59-19L73,60.58l-1.34,7.11L61.19,72.55l5.57-29.64L77.21,38l-1.7,9.21,9.85-4.62,3.89-20.7ZM94.84,19.23,85,72.2l28.87-13.56L116.06,47l-17.55,8.2L100.25,46l12.94-6,2.15-11.34-13,6.08,1.74-9.17,15.51-7.37,2.19-11.58Z"/>
      </g>
    </g>
  </g>
</svg>
